**kern	**kern	**kern	**kern	**root	**harm
!bass	!tenor	!alto	!soprno	!	!
*Iorgan	*Iorgan	*Iorgan	*Iorgan	*Iorgan
*clefF4	*clefF4	*clefG2	*clefG2	*
*M4/4	*M4/4	*M4/4	*M4/4	*M4/4
*met(C)	*met(C)	*met(C)	*met(C)	*met(C)
*MM60	*MM60	*MM60	*MM60	*MM60	*MM60
*k[]	*k[]	*k[]	*k[]	*k[]
*a:	*a:	*a:	*a:	*a:	*a:
4A	4c	4e	4a	4AA	Z
4G#	4B	4e	4b	4EE	bV
4A	4A	4e	4cc	4AA	Z
4AA;	4A;	4e;	4cc;	4AA;	Z
=	=	=	=	=
4A	4A	4e	4cc	4AA	Z
4G	4B	4g	4dd	4GG	Z
4c	4c	4g	4ee	4CC	Z
4C;	4c;	4g;	4ee;	4CC;	Z
=	=	=	=	=
8c	8c	4g	4ee	4CC	Z
8B	8d	.	.	.
8A	8c	4cc[	4ee	4AA	Z
8G	8B	.	.	.
8F#	8A	8cc]	4dd	8DD	7b-/V
8G#	8B	4b	.	8GG#	Z
4A	8c	.	4cc	4AA	Z
.	8e	8a	.	.
=	=	=	=	=
4D	4f	4a	.4b	4DD	Z
4E	8e	4g#	.	4EE	Z
.	8d	.	8a	.
2AA;	2c#;	2e;	2a;	2AA;	Z
=	=	=	=	=
8A	8c#	4a	4ee	4AA	Z
8B	8d	.	.	.
8c#	8e	4a	4ee	4AA	Z
8A	8c#	.	.	.
8d	4d	4a	4ff	4DD	Z
8cn	.	.	.	.
8B-	4d	4b-	4ff	4BB-	Z
8A	.	.	.	.
=	=	=	=	=
8G	4d	4b-	4ee	4EE	Z
8E	.	.	.	.
4A	4c#	8a	4ee	4AA	Z
.	.	8g	.	.
4D	4d	8g	4ee	4DD	Z
.	.	8e	.	.
4D;	4A;	4f#;	4dd;	4DD;	Z
*C:	*C:	*C:	*C:	*C:	*C:
=	=	=	=	=
8G	8B	4g	4dd	4GG	Z
8A	8c	.	.	.
8B	8d	4g	4dd	4GG	bV
8G	8B	.	.	.
8c	4c	4g	4ee	4CC	Z
8B	.	.	.	.
8A	4c	4a	4ee	4AA	Z
8G	.	.	.	.
=	=	=	=	=
8F	4c	4a	4dd	4DD	7bi
8D	.	.	.	.
4G	4B	8g	4dd	4GG	Z
.	.	8f	.	.
4C	4c	8f	4cc	4CC	Z
.	.	8d	.	.
4C;	4G;	4e;	4cc;	4CC;	Z
*a:	*a:	*a:	*a:	*a:	*a:
=	=	=	=	=
4F	4A	4f	4cc	4FF	Z
8E	4A	4f	4dd	4DD	Z
8D	.	.	.	.
8G#	4B	4e	4ee	4EE	bV
8E	.	.	.	.
4A	4A	4e	8dd	4AA	Z
.	.	.	8cc	.
=	=	=	=	=
4D#	4A	4f#	4b	4BB	7b/V
4E	4G#	8e	4b	4EE	Z
.	.	8d	.	.
4A	4A	8d	4a	4AA	Z
.	.	8B	.	.
4AA;	4E;	4c#;	4a;	4AA;	Z
===	===	===	===	===
*-	*-	*-	*-	*-	*-
